X: 26023
T: Mazurka Des Écoliers De Saint Genest
R: mazurka
M: 3/4
K: Aminor
|:e2efga|e4 fe|d2edcB|c2AABA|
e2efga|e4 fe|d2edcB|B3:|
|:aag|f2fefg|a4 gf|e2e^def|e4 ag|
f2fefg|a4 gf|e2dcBc|1 B3:|2 A3||

